X: 1791
T: Sonbahar Goncası mı
C: Mustafa Nafiz Irmak
O: Turkey
F: http://compmusic.upf.edu/node/140
N: suzinak-zirgule--sarki--agiraksak--sonbahar_goncasi_mi--mustafa_nafiz_irmak
N: makam= suzinak-zirgule
N: form= sarki
N: usul= agiraksak = 9/4
M: 9/4
L: 1/16
K: C _1/4B _7/8e _7/8A ^f
Q: 1/4=72
%%MIDI tuningsystem comma53
gg2f e2d2 c2d2 e2g2 f2{g}fe d2f2 e4 edef edc2  | 
w:  ARANAĞME  | 
d2e4d2 g2fg =a2gf f3e feed d4 GABc d2ef  | 
w:   | 
gg2f e2d2 c2d2 e2g2 f2e2 d2c2 B2c2 B2A2 GABc  | 
w:   | 
d2cd e2dc c2Bc d2cB B3A BAAG G4 cdef g4  | 
w:   | 
gg2f e2d2 c2d2 e2g2 f2{g}fe d2f2 e4 edef edc2  | 
w:  ARANAĞME  | 
d2e4d2 g2fg =a2gf f3e feed d4 GABc d2ef  | 
w:   | 
gg2f e2d2 c2d2 e2g2 f2e2 d2c2 B2c2 B2A2 GABc  | 
w:   | 
d2cd e2dc c2Bc d2cB B3A BAAG G4 z2de dgfe  | 
w:   | 
d3/2e/de dcBc d2c4d2 d8 e2g2 f2e2 d2c2  | \
w:  *  *  *  *  *  *  *  *  *  Son ba har  gon  | 
d2{f}e{f}d {e}d{e}c2B c4 d2e2 d2c2 {d}c2B2 c6c{d}B B{c}AAG  | 
w:  *  *  *  *  *  *  *  *  *  *  *  ca sı  mı  *  *  *  *  göğ  | 
G12 d2e2 d2c2 B2c2 d4 e4 f2ed  | d2=a2 g3f f3e feed d8 d2ef edc2 B2c2  | 
w:  *  sü nün_ üs *  *  *  tün  |  *  *  *  *  *  *  de *  ki  *  gül   SAZ  | 
(3def(3efg (3fed(3cBc d2d4=a2 g2f2 e2d2 f2g2 f2g2 f2(3ede  | 
w:  *  *  *  *  *  *  *  *  *  *  *  *  *  Gel  bi raz  *  *  *  rû  | 
f2gf {g}fe2d d2(3cBc d2e2 d2c2 {d}c2B2 c6c{d}B B{c}A2G  | 
w:  *  *  *  *  *  *  *  *  *  *  *  hu mu  yak  *  *  *  *  kal  | 
G3/2A/Bc dBcA G4 B2c2 d6(3cBc d2eg f2e2 d2c2  | 
w:  *  *  *  *  *  *  *  *  *  bi me  hic *  *  *  rân   | 
Bcde fg/f/e/d/c B3A BAAG G8 d2ef edc2 B2c2  | 
w:  *  *  *  *  *  *  *  *  *  *  *  *  la  *  dö *  kül   SAZ  | 
(3def(3efg (3fed(3cBc d2d4=a2 g2f2 e2d2 f2g2 f2g2 f2(3ede  | 
w:  *  *  *  *  *  *  *  *  *  *  *  *  *  Gel  bi raz  *  *  *  rû  | 
f2gf {g}fe2d d2(3cBc d2e2 d2c2 {d}c2B2 c6c{d}B B{c}A2G  | 
w:  *  *  *  *  *  *  *  *  *  *  *  hu mu  yak  *  *  *  *  kal  | 
G3/2A/Bc dBcA G4 B2c2 d6(3cBc d2eg f2e2 d2c2  | 
w:  *  *  *  *  *  *  *  *  *  bi me  hic *  *  *  rân   | 
Bcde fg/f/e/d/c B3A BAAG G4 G/A/B/c/d/e/f/g/ =a2_bc' bag2 f2a2  | 
w:  *  *  *  *  *  *  *  *  *  *  *  *  la  *  dö *  kül   SAZ  | 
gfed .cdef g4 f2g2 g8 =a4 _b4 a2g2  | \
w:  *  *  *  *  *  *  *  *  *  A cı  bir  han  | 
gfg=a f{g}f{g}ed d4 a2_b2 a2g2 f2{b}a{b}g f4 g4 f4  | 
w:  *  *  *  *  *  *  *  *  *  *  *  de  i le  *  *  *  *  *  *  aş  | 
g8 g2fe d2_1/4e2 d2c2 B2c2 dcd2 _7/8ede2 f2ed  | \
w:  *  *  *  *  kı mın_ â *  *  *  lâ  | 
d2=a2 g2gf f2{g}fe feed d8 d3/2e/fg fedc B2c2  | 
w:  *  *  *  *  *  *  *  *  *  mı *  na  *  gül   SAZ  | 
(3def(3efg (3fed(3cBc d2d4=a2 g2f2 e2d2 f2g2 f2g2 f2(3ede  | 
w:  *  *  *  *  *  *  *  *  *  *  *  *  *  Gel  bi raz  *  *  *  rû  | 
f2gf {g}fe2d d2(3cBc d2e2 d2c2 {d}c2B2 c6c{d}B B{c}A2G  | 
w:  *  *  *  *  *  *  *  *  *  *  *  hu mu  yak  *  *  *  *  kal  | 
G3/2A/Bc dBcA G4 B2c2 d6(3cBc d2eg f2e2 d2c2  | 
w:  *  *  *  *  *  *  *  *  *  bi me  hic *  *  *  rân   | 
Bcde fg/f/e/d/c B3A BAAG G8 |
w:  *  *  *  *  *  *  *  *  *  *  *  *  la  *  dö *  kül    | 


